X: 13
T: Piano Sonata No. 5 in G major, K 283 (189h), mvmt. 1
C: Wolfgang Amadeus Mozart
%%abc-version 2.0
%%abcx-abcm2ps-target-version 5.9.1 (29 Sep 2008)
%%abc-creator hum2abc beta
%%abcx-conversion-date 2021/01/14 17:01:33
%%abc-copyright 2018 Craig Stuart Sapp
%%abc-edited-by Craig Stuart Sapp
%%abc-edited-by Craig Stuart Sapp
%%abcx-initial-encoding-date 2009/10/05
%%gracespace 0 6 6
%%humdrum-veritas 1213682099
%%humdrum-veritas-data 2226311587
%%linebreak <none>
%%barnumbers 0
L: 1/16
M: 3/4
N: Derived from sonata05-1.krn
Q: "Allegro" 1/4=120
%%staves {1 2}
V: 1 clef=treble
V: 2 clef=bass
K: G
[V:1] d3B [I:setbarnb 1]| 
[V:2] z4 | 
[V:1] d4z4G4 | 
[V:2] G,2B,2D2B,2D2B,2 | 
[V:1] F4z4a3f | 
[V:2] A,2C2D2C2D2C2 | 
[V:1] a4z4c4 | 
[V:2] F,2A,2D2A,2D2A,2 | 
[V:1] B4z4g3f | 
[V:2] G,2B,2D2B,2G,4[K:clef=treble] | 
[V:1] f2e2e4g3e | 
[V:2] [C8G8]z4 | 
[V:1] e2d2d4g3d | 
[V:2] [B,8G8]z4[K:clef=bass] | 
[V:1] .d4.d4.d4 | 
[V:2] [A,4C4][G,4B,4][F,4A,4] | 
[V:1] defg abc'd' c'bag | 
[V:2] [G,4B,4]z4[E,4G,4] | 
[V:1] fedc BdBG AcAF | 
[V:2] z4G,4C4 & x4D,8 | 
[V:1] G4z4G3F | 
[V:2] B,4G,,4z4 & G,4x8 | 
[V:1] F2E2E4G3E | 
[V:2] [C,8G,8]z4 | 
[V:1] E2D2D4g3d | 
[V:2] [B,,8G,8]z4 | 
[V:1] .d4.d4.d4 | 
[V:2] [A,4C4][G,4B,4][F,4A,4] | 
[V:1] defg abc'd' c'bag | 
[V:2] [G,4B,4]z4[E,4G,4] | 
[V:1] fedc BdBG AcAF | 
[V:2] z4G,4C4 & x4D,8 | 
[V:1] G4z2 G,B, A,CB,D | 
[V:2] B,4x8 & G,4z2 [G,,,2G,,2][A,,,2A,,2][B,,,2B,,2] | 
[V:1] C4z2 A,C B,DCE | 
[V:2] [C,,4C,4]z2 [A,,,2A,,2][B,,,2B,,2][C,,2C,2] | 
[V:1] D4z2 B,D CED=F | 
[V:2] [D,,4D,4]z2 [B,,,2B,,2][C,,2C,2][D,,2D,2] | 
[V:1] E=FDE CEDF EG^FA | 
[V:2] [E,,2E,2][D,,2D,2][C,,2C,2][D,,2D,2][E,,2E,2][F,,2F,2] | 
[V:1] GAFG EGFA GBAc | 
[V:2] [G,,2G,2][F,,2F,2][E,,2E,2][F,,2F,2][G,,2G,2][A,,2A,2] | 
[V:1] BcAB GBAc Bd^ce | 
[V:2] [B,,2B,2][A,,2A,2][G,,2G,2][A,,2A,2][B,,2B,2][^C,2^C2] | 
[V:1] d4!trill!D4{/^CD}z4 | 
[V:2] [D,4D4][D,,4D,4]z4[K:clef=treble] | 
[V:1] z2a4g4f2- | 
[V:2] F2A2E2A2D2A2 | 
[V:1] f2e4d4^c2 | 
[V:2] ^C2A2B,2A2A,2A2 | 
[V:1] e2<d2 f2<e2 gf3 | 
[V:2] B,2A2^C2A2D2A2 | 
[V:1] a2>g2e4z4 | 
[V:2] E2A2^C2A2A,2A2 | 
[V:1] z2 ab g2ga f2fg | 
[V:2] FAFA EAEA DADA | 
[V:1] e2ef d2de ^c2ce | 
[V:2] ^CACA B,AB,A A,AA,A | 
[V:1] defd efge fgaf | 
[V:2] B,AB,A ^CACA DADA | 
[V:1] agag.e4z4 | 
[V:2] EAEA ^CACA[K:clef=bass] A,G,F,E, | 
[V:1] z2 .d2.^c2.d2 [e2g2][d2f2] | 
[V:2] D,4z4^C2D2 | 
[V:1] z2 .d2.^c2.d2 [g2b2][f2a2] | 
[V:2] D,4z4^C2D2 | 
[V:1] z2 .d2.^c2.d2 [b2d'2][a2^c'2] | 
[V:2] D,4z4[K:clef=treble]^G2A2 | 
[V:1] [a2=c'2][g2b2] [=f2^g2][e2a2] [_e2^f2][d2=g2] | 
[V:2] F2=G2 D2^C2 =C2B,2 | 
[V:1] g=e^cA ^GABA =gecA | 
[V:2] A,4z4[K:clef=bass][G,4A,4E4] | 
[V:1] afdA ^GABA afdA | 
[V:2] [F,4A,4D4]z4[F,4A,4D4] | 
[V:1] Begb bagf fed^c | 
[V:2] [G,4B,4E4][K:clef=treble][D4F4][E4G4] & x4A,8 | 
[V:1] z2 .d2.^c2.d2 [b2d'2][a2^c'2] | 
[V:2] F4z4^G2A2 & D4x8 | 
[V:1] [a2=c'2][g2b2] [=f2^g2][e2a2] [_e2^f2][d2=g2] | 
[V:2] F2=G2 D2^C2 =C2B,2 | 
[V:1] g=e^cA ^GABA =gecA | 
[V:2] A,4[K:clef=bass]z2 [A,2^C2E2][G,2A,2E2][G,2A,2E2] | 
[V:1] afdA ^GABA afdA | 
[V:2] [F,4A,4D4]z2 [F,2A,2D2][F,2A,2D2][F,2A,2D2] | 
[V:1] Begb bagf fed^c | 
[V:2] [G,4B,4E4][K:clef=treble][D4F4][E4G4] & x4A,8 | 
[V:1] .d2df egfa!trill!g4{/fg} | 
[V:2] [F4D4]z2[K:clef=bass] A,^C B,DCE & D4x2x6 | 
[V:1] f2df egfa!trill!g4{/fg} | 
[V:2] D4z2 A,^C B,DCE | 
[V:1] z2b4a4g2- & f4e4d4 | 
[V:2] D4^C4B,4 | 
[V:1] g2f4e4d2 & ^c4B4A4 | 
[V:2] A,4G,4F,4 | 
[V:1] ^d2e2 z2 g2e2^c2 & B4z2 B2G2E2 | 
[V:2] G,4E,4A,4 | 
[V:1] z ^g^ab z bg=a z ef=g & f4e4d4 | 
[V:2] D4^C4B,4 | 
[V:1] z g^ef z c^d=e z ec=d & ^c4B4A4 | 
[V:2] A,4G,4F,4 | 
[V:1] egbg fadf eg^ce | 
[V:2] G,4A,4A,,4 | 
[V:1] d4z2 [F2A2=c2][D2G2B2][E2G2^c2] | 
[V:2] D,D^CD D,DCD D,DCD | 
[V:1] [F4A4d4]z2 [f2a2=c'2][d2g2b2][e2g2^c'2] | 
[V:2] D,D^CD D,DCD D,DCD | 
[V:1] [f4a4d'4]z4 :|]  
[V:2] D,4z4 :|]  
[V:1] z4 [I:setbarnb 54]| 
[V:2] z4[K:clef=treble] | 
[V:1] {/^g//}a4z4z4 | 
[V:2] z4[D4F4][D4F4] | 
[V:1] =gfed^c4z4 | 
[V:2] z4[E4G4][E4G4] | 
[V:1] {/d//}d'4z4z4 | 
[V:2] z4[F4A4][F4A4] | 
[V:1] e4-efgf agfe | 
[V:2] z4[G4B4][A4^c4] | 
[V:1] ^gaga {/b//}a4z4 | 
[V:2] z4[K:clef=bass][D,4F,4][D,4F,4] | 
[V:1] a=gfed4^c2 z2 | 
[V:2] z4[E,4G,4][E,4G,4] | 
[V:1] ^c'd'c'd' {/e'//}d'4z4 | 
[V:2] z4[F,4A,4][F,4A,4] | 
[V:1] {/d'//}e4-e^def agfe | 
[V:2] z4[G,4B,4][A,4^C4] | 
[V:1] =d4z2 (3ed^c .d2.d2 | 
[V:2] .D,2.D2.D2.D2.D2.D2 | 
[V:1] .[g2b2].[f2a2].[e2g2].[d2f2].[=c2e2].[B2d2] | 
[V:2] .D2.D2.D2.D2.D2.D2 | 
[V:1] [A4c4]z2 (3dcB .c2.c2 | 
[V:2] .D,2.D2.D2.D2.D2.D2 | 
[V:1] .[f2a2].[e2g2].[d2f2].[c2e2].[B2d2][A2c2] | 
[V:2] .D2.D2.D2.D2.D2.D2 | 
[V:1] [G4B4]z2 (3cBA .B2.B2 | 
[V:2] D,2.D2.D2.D2.D2.D2 | 
[V:1] .[B2g2].[A2f2].[c2e2].[B2d2].[A2c2].[G2B2] | 
[V:2] .D2.D2.D2.D2.D2.D2 | 
[V:1] [F4A4]z2 .D.E .F2.G2 | 
[V:2] D4z2 .D,.E, .F,2.G,2 | 
[V:1] A4z2 .F.G .A2.B2 | 
[V:2] A,4z2 .F,.G, .A,2.B,2 | 
[V:1] c4z2 c'b a2ag | 
[V:2] C4z4z4 | 
[V:1] f2fe d2d^c2< d2B | 
[V:2] z12 | 
[V:1] d4z4G4 | 
[V:2] G,2B,2D2B,2D2B,2 | 
[V:1] F4z4a3f | 
[V:2] A,2C2D2C2D2C2 | 
[V:1] a4z4c4 | 
[V:2] F,2A,2D2A,2D2A,2 | 
[V:1] B4z4e3c | 
[V:2] .G,2 [B,2D2][A,2C2][^G,2B,2]z4 | 
[V:1] e4z4A4 | 
[V:2] A,2C2E2C2E2C2 | 
[V:1] ^G4z4b3^g | 
[V:2] B,2D2E2D2E2D2 | 
[V:1] b4z4d4 | 
[V:2] ^G,2B,2E2B,2E2B,2 | 
[V:1] c4z4c'3a | 
[V:2] .A,2 [C2E2][B,2D2][A,2C2]z4[K:clef=treble] | 
[V:1] g2<=f2f4f4 | 
[V:2] A,2C2=F2A,2B,2G2 | 
[V:1] ^d4e4c'3g | 
[V:2] C2G2c2G2E2G2 | 
[V:1] e4eg^fg agfe | 
[V:2] C2E2G2E2C2E2 | 
[V:1] {/^c//}d4z2 G,B, A,=CB,D | 
[V:2] [B,4G4][K:clef=bass]z2 [G,,,2G,,2][A,,,2A,,2][B,,,2B,,2] | 
[V:1] C4z2 A,C B,DCE | 
[V:2] [C,,4C,4]z2 [A,,,2A,,2][B,,,2B,,2][C,,2C,2] | 
[V:1] D4z2 B,D CED=F | 
[V:2] [D,,4D,4]z2 [B,,,2B,,2][C,,2C,2][D,,2D,2] | 
[V:1] E=FDE CEDF EG^FA | 
[V:2] [E,,2E,2][D,,2D,2][C,,2C,2][D,,2D,2][E,,2E,2][F,,2F,2] | 
[V:1] GAFG EGFA GBAc | 
[V:2] [G,,2G,2][F,,2F,2][E,,2E,2][F,,2F,2][G,,2G,2][A,,2A,2] | 
[V:1] BcAB GBAc Bd^ce | 
[V:2] [B,,2B,2][A,,2A,2][G,,2G,2][A,,2A,2][B,,2B,2][^C,2^C2] | 
[V:1] d4!trill!D4{/^CD}z4 | 
[V:2] [D,4D4][D,,4D,4]z4 | 
[V:1] z2d4=c4B2- | 
[V:2] B,2D2A,2D2G,2D2 | 
[V:1] B2A4G4F2 | 
[V:2] F,2D2E,2D2D,2D2 | 
[V:1] A2<G2 B2<A2 cB3 | 
[V:2] E,2D2F,2D2G,2D2 | 
[V:1] d2>c2A4z4 | 
[V:2] A,2D2F,2D2D,2D2[K:clef=treble] | 
[V:1] z2 d'e' c'2c'd' b2bc' | 
[V:2] BdBd AdAd GdGd | 
[V:1] a2ab g2ga f2fa | 
[V:2] FdFd EdEd DdDd | 
[V:1] gabg abc'a bc'd'b | 
[V:2] EdEd FdFd GdGd | 
[V:1] d'c'd'c'.a4z4 | 
[V:2] AdAd FdFd[K:clef=bass] DCB,A, | 
[V:1] z2 .G2.F2.G2 [A2c2][G2B2] | 
[V:2] [G,,4G,4]z4F,2G,2 | 
[V:1] z2 .G2.F2.G2 [c2e2][B2d2] | 
[V:2] G,,4z4F,2G,2 | 
[V:1] z2 .G2.F2G2 [e2g2][d2f2] | 
[V:2] G,,4z4^C2D2 | 
[V:1] [d2=f2][c2e2] [_B2^c2][A2d2] [_A2=B2][G2=c2] | 
[V:2] B,2=C2 G,2F,2 =F,2E,2 | 
[V:1] c=A^FD ^CDED =cAFD | 
[V:2] D,4z4[C,4D,4A,4] | 
[V:1] dBGD ^CDED dBGD | 
[V:2] [B,,4D,4G,4]z4[B,,4D,4G,4] | 
[V:1] EAce edcB BAGF | 
[V:2] x4[G,4B,4][A,4C4] & [C,4E,4A,4]D,8 | 
[V:1] z2 .G2.F2.G2 [e2g2][d2f2] | 
[V:2] B,4z4^C2D2 & G,4x8 | 
[V:1] [d2=f2][c2e2] [_B2^c2][A2d2] [_A2=B2][G2=c2] | 
[V:2] B,2=C2 G,2F,2 =F,2E,2 | 
[V:1] c'=a^fd ^cded =c'afd | 
[V:2] D4[K:clef=treble]z2 [D2^F2A2][C2D2A2][C2D2A2] | 
[V:1] d'bgd ^cded d'bgd | 
[V:2] [B,4D4G4]z2 [B,2D2G2][B,2D2G2][B,2D2G2] | 
[V:1] eac'e' e'd'c'b bagf | 
[V:2] [C4E4A4][G4B4][A4c4] & x4D8 | 
[V:1] .g2gb ac'bd'!trill!c'4{/bc'} | 
[V:2] B4z2 DF EGFA & G4x8 | 
[V:1] .b2 GB AcBd!trill!c4{/Bc} | 
[V:2] G4z2[K:clef=bass] D,F, E,G,F,A, | 
[V:1] z2e4d4c2- & B4A4G4 | 
[V:2] G,4F,4E,4 | 
[V:1] c2B4A4G2 & F4E4D4 | 
[V:2] D,4C,4B,,4 | 
[V:1] ^G2A2 z2 c2B2A2 & E4x2 A2=G2F2 | 
[V:2] C,4A,,4D,4 | 
[V:1] z ^c'^d'e' z e'c'=d' z ab=c' & b4a4g4 | 
[V:2] G4F4E4 | 
[V:1] z c'^ab z f^g=a z af=g & f4e4d4 | 
[V:2] D4C4B,4 | 
[V:1] egec BdGB AcFA | 
[V:2] C4D4D,4 | 
[V:1] G4z2 [D2=F2B2][E2G2c2][^F2A2c2] | 
[V:2] G,,G,F,G, G,,G,F,G, G,,G,F,G, | 
[V:1] [G4B4]z2 [B2d2=f2][c2e2][A2c2^f2] | 
[V:2] G,,G,F,G, G,,G,F,G, G,,G,F,G, | 
[V:1] [B4d4g4]z4 |]  
[V:2] G,,4z4 |]  


